contributed-vectors/clickup_alt.svg

<svg xmlns="http://www.w3.org/2000/svg" xml:space="preserve" style="fill-rule:evenodd;clip-rule:evenodd;stroke-linejoin:round;stroke-miterlimit:2" viewBox="0 0 192 192"><path d="M164.5 21.5c0-5.519-4.481-10-10-10h-133c-5.519 0-10 4.481-10 10v133c0 5.519 4.481 10 10 10h133c5.519 0 10-4.481 10-10v-133Z" style="fill:#bd9aff" transform="translate(8 8)"/><path d="m96 45.142 39.433 35.505-12.251 13.605L96 69.777 68.818 94.252 56.567 80.647 96 45.142Z" style="fill:#fff" transform="matrix(.7275 0 0 .7275 26.24 25.83)"/><path d="M59.702 132.427a39.432 39.432 0 0 0 73.111-1.276l-18.038-6.924a20.11 20.11 0 0 1-37.287.651l-17.786 7.549Z" style="fill:#fff" transform="matrix(.83127 0 0 .7275 16.278 17.089)"/></svg>

<?xml version="1.0" encoding="UTF-8" standalone="no"?>
<!DOCTYPE svg PUBLIC "-//W3C//DTD SVG 1.1//EN" "http://www.w3.org/Graphics/SVG/1.1/DTD/svg11.dtd">
<svg width="100%" height="100%" viewBox="0 0 192 192" version="1.1" xmlns="http://www.w3.org/2000/svg" xmlns:xlink="http://www.w3.org/1999/xlink" xml:space="preserve" xmlns:serif="http://www.serif.com/" style="fill-rule:evenodd;clip-rule:evenodd;stroke-linejoin:round;stroke-miterlimit:2;">
    <g id="Layer1">
        <g transform="matrix(1,0,0,1,8,8)">
            <path d="M164.5,21.5C164.5,15.981 160.019,11.5 154.5,11.5L21.5,11.5C15.981,11.5 11.5,15.981 11.5,21.5L11.5,154.5C11.5,160.019 15.981,164.5 21.5,164.5L154.5,164.5C160.019,164.5 164.5,160.019 164.5,154.5L164.5,21.5Z" style="fill:rgb(189,154,255);"/>
        </g>
        <g transform="matrix(0.727507,0,0,0.727507,26.2395,25.8295)">
            <path d="M96,45.142L135.433,80.647L123.182,94.252L96,69.777L68.818,94.252L56.567,80.647L96,45.142Z" style="fill:white;"/>
            <g transform="matrix(1.14263,0,0,1,-13.6924,-12.0149)">
                <path d="M59.702,132.427C65.885,146.993 80.176,156.452 96,156.452C112.326,156.452 126.963,146.392 132.813,131.151L114.775,124.227C111.791,132 104.326,137.13 96,137.13C87.93,137.13 80.641,132.306 77.488,124.878L59.702,132.427Z" style="fill:white;"/>
            </g>
        </g>
    </g>
</svg>
